X: 9
T: Smash The Windows
Z: Makenzie
S: https://thesession.org/tunes/101#setting50755
R: jig
M: 6/8
L: 1/8
K: Dmaj
|:DED F2A|d2f edA|G2B F2A|E2F GFE|
DED F2A|d2f edA|Bgf edc|1 d3 dAF:|2 d2d dfg||
|:a2f d2e|fga agf|gfe c2d|e2f gfe|
[1a2f d2e|fga agf|gfe cde|d2d dfg:|
[2fed gfe|agf bag|fgf edc|d6||

